X: 136
T: Snowflake Hornpipe
C:
B: NEFR #136
R: hornpipe, reel
Z: 2012 John Chambers <jc:trillian.mit.edu>
M: C|
L: 1/8
K: A
E2 |\
A2 AG Ac ec | BA Bc Bc dc | Bc de fg af | ea gf ed cB |
A2 AG Ac ec | BA Bc de fg | ag ae fd BG | A2 a2 A2 :|
|: cd |\
ef ed ce ag | fe dc de fg | ag fe dc BA | Ge BG Ec d^d |
ef ed ce ag | fe dc de fg | ag ae fd BG | A2 c2 A2 :|
